retroactive/svg_marked/DOS.svg

<?xml version="1.0" encoding="UTF-8" standalone="no"?>
<svg
   xmlns:dc="http://purl.org/dc/elements/1.1/"
   xmlns:cc="http://creativecommons.org/ns#"
   xmlns:rdf="http://www.w3.org/1999/02/22-rdf-syntax-ns#"
   xmlns:svg="http://www.w3.org/2000/svg"
   xmlns="http://www.w3.org/2000/svg"
   viewBox="0 0 320 320"
   height="320"
   width="320"
   xml:space="preserve"
   version="1.1"
   id="svg2"><metadata
     id="metadata8"><rdf:RDF><cc:Work
         rdf:about=""><dc:format>image/svg+xml</dc:format><dc:type
           rdf:resource="http://purl.org/dc/dcmitype/StillImage" /></cc:Work></rdf:RDF></metadata><defs
     id="defs6"><clipPath
       id="clipPath16"
       clipPathUnits="userSpaceOnUse"><path
         id="path18"
         d="M 0,256 256,256 256,0 0,0 0,256 Z" /></clipPath><clipPath
       id="clipPath24"
       clipPathUnits="userSpaceOnUse"><path
         id="path26"
         d="M 4,252 252,252 252,4 4,4 4,252 Z" /></clipPath><clipPath
       id="clipPath42"
       clipPathUnits="userSpaceOnUse"><path
         id="path44"
         d="M 0,256 256,256 256,0 0,0 0,256 Z" /></clipPath></defs><g
     transform="matrix(1.25,0,0,-1.25,0,320)"
     id="g10"><g
       id="g12"><g
         clip-path="url(#clipPath16)"
         id="g14"><g
           id="g20"><g
             id="g22" /><g
             id="g28"><g
               style="opacity:0.5"
               id="g30"
               clip-path="url(#clipPath24)"><g
                 id="g32"
                 transform="translate(244,84)"><path
                   id="path34"
                   style="fill:#ffffff;fill-opacity:1;fill-rule:nonzero;stroke:none"
                   d="m 0,0 -14.34,0 0.994,6.851 c 7.114,49.029 7.114,105.269 0,154.298 l -0.994,6.851 -6.923,0 -189.474,0 -6.923,0 -0.994,-6.851 c -7.114,-49.029 -7.114,-105.269 0,-154.298 L -217.66,0 -232,0 l -8,0 0,-8 0,-64 0,-8 8,0 232,0 8,0 0,8 0,64 0,8 -8,0 z" /></g></g></g></g></g></g><path
       id="path36"
       style="fill:#a0a0a0;fill-opacity:1;fill-rule:nonzero;stroke:none"
       d="m 188,76 -120,0 0,16 120,0 0,-16 z" /><g
       id="g38"><g
         clip-path="url(#clipPath42)"
         id="g40"><g
           transform="translate(33.2632,244)"
           id="g46"><path
             id="path48"
             style="fill:#c2c2c2;fill-opacity:1;fill-rule:nonzero;stroke:none"
             d="m 0,0 189.474,0 c 7.017,-48.364 7.017,-103.636 0,-152 L 0,-152 c -7.018,48.364 -7.018,103.636 0,152" /></g><g
           transform="translate(51,232)"
           id="g50"><path
             id="path52"
             style="fill:#a0a0a0;fill-opacity:1;fill-rule:nonzero;stroke:none"
             d="m 0,0 154,0 c 3.866,0 7,-3.084 7,-6.889 l 0,-110.222 c 0,-3.805 -3.134,-6.889 -7,-6.889 l -154,0 c -3.866,0 -7,3.084 -7,6.889 L -7,-6.889 C -7,-3.084 -3.866,0 0,0" /></g><g
           transform="translate(60.538,217.4576)"
           id="g54"><path
             id="path56"
             style="fill:#00007b;fill-opacity:1;fill-rule:nonzero;stroke:none"
             d="m 0,0 c 24.889,3.39 96,3.39 120.889,0 1.95,-0.266 3.555,-1.512 3.555,-3.39 l 0,-88.135 c 0,-1.878 -1.605,-3.125 -3.555,-3.39 -24.889,-3.39 -96,-3.39 -120.889,0 -1.95,0.265 -3.556,1.512 -3.556,3.39 l 0,88.135 c 0,1.878 1.606,3.124 3.556,3.39" /></g><g
           transform="translate(120.9825,220)"
           id="g58"><path
             id="path60"
             style="fill:#231f20;fill-opacity:1;fill-rule:nonzero;stroke:none"
             d="M 0,0 C -24,0 -48,-0.847 -60.444,-2.542 -62.394,-2.808 -64,-4.054 -64,-5.932 l 0,-88.136 c 0,-1.878 1.606,-3.124 3.556,-3.39 C -48,-99.153 -24,-100 0,-100 c 24,0 48,0.847 60.444,2.542 1.95,0.266 3.556,1.512 3.556,3.39 l 0,88.136 c 0,1.878 -1.606,3.124 -3.556,3.39 C 48,-0.847 24,0 0,0 M 0,-4 C 25.602,-4 48.556,-4.96 59.905,-6.506 59.938,-6.51 59.97,-6.516 60,-6.522 l 0,-86.956 C 59.97,-93.484 59.938,-93.49 59.905,-93.494 48.556,-95.04 25.602,-96 0,-96 c -25.602,0 -48.556,0.96 -59.905,2.506 -0.033,0.004 -0.065,0.01 -0.095,0.016 l 0,86.956 c 0.03,0.006 0.062,0.012 0.095,0.016 C -48.556,-4.96 -25.602,-4 0,-4" /></g><g
           transform="translate(204.1754,154.1818)"
           id="g62"><path
             id="path64"
             style="fill:#3b3b3b;fill-opacity:1;fill-rule:nonzero;stroke:none"
             d="m 0,0 c 0,-3.314 -2.686,-6 -6,-6 -3.314,0 -6,2.686 -6,6 0,3.314 2.686,6 6,6 3.314,0 6,-2.686 6,-6" /></g><g
           transform="translate(204.1754,133.4545)"
           id="g66"><path
             id="path68"
             style="fill:#3b3b3b;fill-opacity:1;fill-rule:nonzero;stroke:none"
             d="m 0,0 c 0,-3.314 -2.686,-6 -6,-6 -3.314,0 -6,2.686 -6,6 0,3.314 2.686,6 6,6 3.314,0 6,-2.686 6,-6" /></g><path
           id="path70"
           style="fill:#c2c2c2;fill-opacity:1;fill-rule:nonzero;stroke:none"
           d="m 12,12 232,0 0,64 -232,0 0,-64 z" /><path
           id="path72"
           style="fill:#a0a0a0;fill-opacity:1;fill-rule:nonzero;stroke:none"
           d="m 156,19.99 80,0 0,48 -80,0 0,-48 z" /><g
           transform="translate(216,55.9987)"
           id="g74"><path
             id="path76"
             style="fill:#262626;fill-opacity:1;fill-rule:nonzero;stroke:none"
             d="M 0,0 -40,0" /></g><path
           id="path78"
           style="fill:#262626;fill-opacity:1;fill-rule:nonzero;stroke:none"
           d="m 176.001,54 39.999,0 0,4 -39.999,0 0,-4 z" /><path
           id="path80"
           style="fill:#262626;fill-opacity:1;fill-rule:nonzero;stroke:none"
           d="m 192,52 8,0 0,8 -8,0 0,-8 z" /><path
           id="path82"
           style="fill:#808080;fill-opacity:1;fill-rule:nonzero;stroke:none"
           d="m 208,48 8,0 0,4 -8,0 0,-4 z" /><g
           transform="translate(232,31.9987)"
           id="g84"><path
             id="path86"
             style="fill:#262626;fill-opacity:1;fill-rule:nonzero;stroke:none"
             d="M 0,0 -72,0" /></g><path
           id="path88"
           style="fill:#262626;fill-opacity:1;fill-rule:nonzero;stroke:none"
           d="m 160.002,30 71.998,0 0,4 -71.998,0 0,-4 z" /><path
           id="path90"
           style="fill:#262626;fill-opacity:1;fill-rule:nonzero;stroke:none"
           d="m 192,28 8,0 0,8 -8,0 0,-8 z" /><path
           id="path92"
           style="fill:#808080;fill-opacity:1;fill-rule:nonzero;stroke:none"
           d="m 224,24 8,0 0,4 -8,0 0,-4 z" /><g
           transform="translate(26,28.666)"
           id="g94"><path
             id="path96"
             style="fill:#a0a0a0;fill-opacity:1;fill-rule:nonzero;stroke:none"
             d="M 0,0 C 0,-3.308 2.691,-5.999 5.999,-5.999 9.309,-5.999 12,-3.308 12,0 12,3.31 9.309,6.001 5.999,6.001 2.691,6.001 0,3.31 0,0 M -2,0 C -2,4.411 1.588,8.001 5.999,8.001 10.41,8.001 14,4.411 14,0 14,-4.411 10.41,-7.999 5.999,-7.999 1.588,-7.999 -2,-4.411 -2,0" /></g><path
           id="path98"
           style="fill:#a0a0a0;fill-opacity:1;fill-rule:nonzero;stroke:none"
           d="m 24,52 16,0 0,16 -16,0 0,-16 z" /><g
           transform="translate(71.9347,207.1985)"
           id="g100"><path
             id="path102"
             style="fill:#ffffff;fill-opacity:1;fill-rule:nonzero;stroke:none"
             d="m 0,0 -1.574,0 0,-0.799 -0.786,0 0,-4.799 0.786,0 0,-0.802 1.574,0 0,0.802 0.786,0 0,0.799 0.788,0 0,-1.601 -0.788,0 0,-0.799 -3.146,0 0,0.799 -0.789,0 0,0.802 -0.786,0 0,4.799 0.786,0 0,0.799 0.789,0 0,0.801 3.146,0 0,-0.801 0.788,0 0,-1.598 -0.788,0 0,0.799 L 0,-0.799 0,0 Z" /></g><path
           id="path104"
           style="fill:#ffffff;fill-opacity:1;fill-rule:nonzero;stroke:none"
           d="m 77.441,202.4 1.574,0 0,-1.6 -1.574,0 0,1.6 z m 0,4 1.574,0 0,-1.6 -1.574,0 0,1.6 z" /><g
           transform="translate(86.8851,200.799)"
           id="g106"><path
             id="path108"
             style="fill:#ffffff;fill-opacity:1;fill-rule:nonzero;stroke:none"
             d="m 0,0 -0.786,0 0,0.801 -0.788,0 0,0.799 -0.786,0 0,0.8 -0.786,0 0,0.801 -0.789,0 0,0.799 -0.786,0 0,2.4 0.786,0 0,-0.8 0.789,0 0,-0.799 0.786,0 0,-0.801 0.786,0 0,-0.799 0.788,0 0,-0.801 0.786,0 0,-0.8 0.788,0 0,-2.399 L 0,-0.799 0,0 Z" /></g><g
           transform="translate(93.1802,206.3995)"
           id="g110"><path
             id="path112"
             style="fill:#ffffff;fill-opacity:1;fill-rule:nonzero;stroke:none"
             d="m 0,0 -0.788,0 0,0.799 -0.786,0 0,-6.399 0.786,0 0,0.801 0.788,0 L 0,0 Z m 0,-5.6 0,-0.8 -3.935,0 0,0.8 0.786,0 0,6.399 -0.786,0 0,0.801 3.935,0 0,-0.801 0.786,0 0,-0.799 0.788,0 0,-4.799 -0.788,0 0,-0.801 -0.786,0 z" /></g><path
           id="path114"
           style="fill:#ffffff;fill-opacity:1;fill-rule:nonzero;stroke:none"
           d="m 100.261,207.199 -2.36,0 0,-6.4 2.36,0 0,6.4 z m -3.935,0 0.786,0 0,0.801 3.935,0 0,-0.801 0.789,0 0,-6.4 -0.789,0 0,-0.799 -3.935,0 0,0.799 -0.786,0 0,6.4 z" /><g
           transform="translate(103.4099,202.3995)"
           id="g116"><path
             id="path118"
             style="fill:#ffffff;fill-opacity:1;fill-rule:nonzero;stroke:none"
             d="m 0,0 1.574,0 0,-1.6 2.361,0 0,2.399 -0.789,0 0,0.801 -1.572,0 0,0.8 -0.788,0 0,0.801 -0.786,0 0,1.598 0.786,0 0,0.801 3.935,0 0,-0.801 0.788,0 0,-1.598 -1.574,0 0,1.598 -2.361,0 0,-1.598 0.786,0 0,-0.801 1.575,0 0,-0.8 0.786,0 0,-0.801 0.788,0 0,-2.399 -0.788,0 0,-0.8 -3.935,0 0,0.8 L 0,-1.6 0,0 Z" /></g><g
           transform="translate(111.2769,207.1985)"
           id="g120"><path
             id="path122"
             style="fill:#ffffff;fill-opacity:1;fill-rule:nonzero;stroke:none"
             d="m 0,0 1.574,0 0,-0.799 0.786,0 0,-0.799 0.789,0 0,-0.802 0.786,0 0,-0.799 0.788,0 0,-0.801 -0.788,0 0,-0.799 -0.786,0 0,-0.799 -0.789,0 0,-0.802 -0.786,0 0,-0.799 -1.574,0 0,0.799 0.788,0 0,0.802 0.786,0 0,0.799 0.786,0 0,0.799 0.789,0 0,0.801 -0.789,0 0,0.799 -0.786,0 0,0.802 -0.786,0 0,0.799 L 0,-0.799 0,0 Z" /></g></g></g></g></svg>

<?xml version="1.0" encoding="UTF-8" standalone="no"?>
<svg
   xmlns:dc="http://purl.org/dc/elements/1.1/"
   xmlns:cc="http://creativecommons.org/ns#"
   xmlns:rdf="http://www.w3.org/1999/02/22-rdf-syntax-ns#"
   xmlns:svg="http://www.w3.org/2000/svg"
   xmlns="http://www.w3.org/2000/svg"
   viewBox="0 0 330.66665 330.66665"
   height="330.66666"
   width="330.66666"
   xml:space="preserve"
   id="svg2"
   version="1.1"><metadata
     id="metadata8"><rdf:RDF><cc:Work
         rdf:about=""><dc:format>image/svg+xml</dc:format><dc:type
           rdf:resource="http://purl.org/dc/dcmitype/StillImage" /></cc:Work></rdf:RDF></metadata><defs
     id="defs6"><clipPath
       id="clipPath18"
       clipPathUnits="userSpaceOnUse"><path
         id="path16"
         d="M 0,256 H 256 V 0 H 0 Z" /></clipPath><clipPath
       id="clipPath26"
       clipPathUnits="userSpaceOnUse"><path
         id="path24"
         d="M 4,252 H 252 V 4 H 4 Z" /></clipPath><clipPath
       id="clipPath44"
       clipPathUnits="userSpaceOnUse"><path
         id="path42"
         d="M 0,256 H 256 V 0 H 0 Z" /></clipPath></defs><g
     transform="matrix(1.3333333,0,0,-1.3333333,-5.3333332,335.99999)"
     id="g10"><g
       id="g12"><g
         clip-path="url(#clipPath18)"
         id="g14"><g
           id="g20"><g
             id="g22" /><g
             id="g34"><g
               style="opacity:0.5"
               id="g32"
               clip-path="url(#clipPath26)"><g
                 id="g30"
                 transform="translate(244,84)"><path
                   id="path28"
                   style="fill:#ffffff;fill-opacity:1;fill-rule:nonzero;stroke:none"
                   d="m 0,0 h -14.34 l 0.994,6.851 c 7.114,49.029 7.114,105.269 0,154.298 L -14.34,168 h -6.923 -189.474 -6.923 l -0.994,-6.851 c -7.114,-49.029 -7.114,-105.269 0,-154.298 L -217.66,0 h -14.34 -8 v -8 -64 -8 h 8 232 8 v 8 64 8 z" /></g></g></g></g></g></g><path
       id="path36"
       style="fill:#a0a0a0;fill-opacity:1;fill-rule:nonzero;stroke:none"
       d="M 188,76 H 68 v 16 h 120 z" /><g
       id="g38"><g
         clip-path="url(#clipPath44)"
         id="g40"><g
           transform="translate(33.2632,244)"
           id="g46"><path
             id="path48"
             style="fill:#c2c2c2;fill-opacity:1;fill-rule:nonzero;stroke:none"
             d="m 0,0 h 189.474 c 7.017,-48.364 7.017,-103.636 0,-152 H 0 c -7.018,48.364 -7.018,103.636 0,152" /></g><g
           transform="translate(51,232)"
           id="g50"><path
             id="path52"
             style="fill:#a0a0a0;fill-opacity:1;fill-rule:nonzero;stroke:none"
             d="m 0,0 h 154 c 3.866,0 7,-3.084 7,-6.889 v -110.222 c 0,-3.805 -3.134,-6.889 -7,-6.889 H 0 c -3.866,0 -7,3.084 -7,6.889 V -6.889 C -7,-3.084 -3.866,0 0,0" /></g><g
           transform="translate(60.538,217.4576)"
           id="g54"><path
             id="path56"
             style="fill:#00007b;fill-opacity:1;fill-rule:nonzero;stroke:none"
             d="m 0,0 c 24.889,3.39 96,3.39 120.889,0 1.95,-0.266 3.555,-1.512 3.555,-3.39 v -88.135 c 0,-1.878 -1.605,-3.125 -3.555,-3.39 -24.889,-3.39 -96,-3.39 -120.889,0 -1.95,0.265 -3.556,1.512 -3.556,3.39 V -3.39 c 0,1.878 1.606,3.124 3.556,3.39" /></g><g
           transform="translate(120.9825,220)"
           id="g58"><path
             id="path60"
             style="fill:#231f20;fill-opacity:1;fill-rule:nonzero;stroke:none"
             d="M 0,0 C -24,0 -48,-0.847 -60.444,-2.542 -62.394,-2.808 -64,-4.054 -64,-5.932 v -88.136 c 0,-1.878 1.606,-3.124 3.556,-3.39 C -48,-99.153 -24,-100 0,-100 c 24,0 48,0.847 60.444,2.542 1.95,0.266 3.556,1.512 3.556,3.39 v 88.136 c 0,1.878 -1.606,3.124 -3.556,3.39 C 48,-0.847 24,0 0,0 M 0,-4 C 25.602,-4 48.556,-4.96 59.905,-6.506 59.938,-6.51 59.97,-6.516 60,-6.522 V -93.478 C 59.97,-93.484 59.938,-93.49 59.905,-93.494 48.556,-95.04 25.602,-96 0,-96 c -25.602,0 -48.556,0.96 -59.905,2.506 -0.033,0.004 -0.065,0.01 -0.095,0.016 v 86.956 c 0.03,0.006 0.062,0.012 0.095,0.016 C -48.556,-4.96 -25.602,-4 0,-4" /></g><g
           transform="translate(204.1754,154.1818)"
           id="g62"><path
             id="path64"
             style="fill:#3b3b3b;fill-opacity:1;fill-rule:nonzero;stroke:none"
             d="m 0,0 c 0,-3.314 -2.686,-6 -6,-6 -3.314,0 -6,2.686 -6,6 0,3.314 2.686,6 6,6 3.314,0 6,-2.686 6,-6" /></g><g
           transform="translate(204.1754,133.4545)"
           id="g66"><path
             id="path68"
             style="fill:#3b3b3b;fill-opacity:1;fill-rule:nonzero;stroke:none"
             d="m 0,0 c 0,-3.314 -2.686,-6 -6,-6 -3.314,0 -6,2.686 -6,6 0,3.314 2.686,6 6,6 3.314,0 6,-2.686 6,-6" /></g><path
           id="path70"
           style="fill:#c2c2c2;fill-opacity:1;fill-rule:nonzero;stroke:none"
           d="M 12,12 H 244 V 76 H 12 Z" /><path
           id="path72"
           style="fill:#a0a0a0;fill-opacity:1;fill-rule:nonzero;stroke:none"
           d="m 156,19.99 h 80 v 48 h -80 z" /><g
           transform="translate(216,55.9987)"
           id="g74"><path
             id="path76"
             style="fill:#262626;fill-opacity:1;fill-rule:nonzero;stroke:none"
             d="M 0,0 H -40" /></g><path
           id="path78"
           style="fill:#262626;fill-opacity:1;fill-rule:nonzero;stroke:none"
           d="M 176.001,54 H 216 v 4 h -39.999 z" /><path
           id="path80"
           style="fill:#262626;fill-opacity:1;fill-rule:nonzero;stroke:none"
           d="m 192,52 h 8 v 8 h -8 z" /><path
           id="path82"
           style="fill:#808080;fill-opacity:1;fill-rule:nonzero;stroke:none"
           d="m 208,48 h 8 v 4 h -8 z" /><g
           transform="translate(232,31.9987)"
           id="g84"><path
             id="path86"
             style="fill:#262626;fill-opacity:1;fill-rule:nonzero;stroke:none"
             d="M 0,0 H -72" /></g><path
           id="path88"
           style="fill:#262626;fill-opacity:1;fill-rule:nonzero;stroke:none"
           d="M 160.002,30 H 232 v 4 h -71.998 z" /><path
           id="path90"
           style="fill:#262626;fill-opacity:1;fill-rule:nonzero;stroke:none"
           d="m 192,28 h 8 v 8 h -8 z" /><path
           id="path92"
           style="fill:#808080;fill-opacity:1;fill-rule:nonzero;stroke:none"
           d="m 224,24 h 8 v 4 h -8 z" /><g
           transform="translate(26,28.666)"
           id="g94"><path
             id="path96"
             style="fill:#a0a0a0;fill-opacity:1;fill-rule:nonzero;stroke:none"
             d="M 0,0 C 0,-3.308 2.691,-5.999 5.999,-5.999 9.309,-5.999 12,-3.308 12,0 12,3.31 9.309,6.001 5.999,6.001 2.691,6.001 0,3.31 0,0 M -2,0 C -2,4.411 1.588,8.001 5.999,8.001 10.41,8.001 14,4.411 14,0 14,-4.411 10.41,-7.999 5.999,-7.999 1.588,-7.999 -2,-4.411 -2,0" /></g><path
           id="path98"
           style="fill:#a0a0a0;fill-opacity:1;fill-rule:nonzero;stroke:none"
           d="M 24,52 H 40 V 68 H 24 Z" /><g
           transform="translate(71.9347,207.1985)"
           id="g100"><path
             id="path102"
             style="fill:#ffffff;fill-opacity:1;fill-rule:nonzero;stroke:none"
             d="M 0,0 H -1.574 V -0.799 H -2.36 v -4.799 h 0.786 V -6.4 H 0 v 0.802 h 0.786 v 0.799 H 1.574 V -6.4 H 0.786 V -7.199 H -2.36 V -6.4 h -0.789 v 0.802 h -0.786 v 4.799 h 0.786 V 0 H -2.36 V 0.801 H 0.786 V 0 H 1.574 V -1.598 H 0.786 v 0.799 H 0 Z" /></g><path
           id="path104"
           style="fill:#ffffff;fill-opacity:1;fill-rule:nonzero;stroke:none"
           d="m 77.441,202.4 h 1.574 v -1.6 h -1.574 z m 0,4 h 1.574 v -1.6 h -1.574 z" /><g
           transform="translate(86.8851,200.799)"
           id="g106"><path
             id="path108"
             style="fill:#ffffff;fill-opacity:1;fill-rule:nonzero;stroke:none"
             d="M 0,0 H -0.786 V 0.801 H -1.574 V 1.6 H -2.36 V 2.4 H -3.146 V 3.201 H -3.935 V 4 h -0.786 v 2.4 h 0.786 V 5.6 h 0.789 V 4.801 H -2.36 V 4 h 0.786 V 3.201 h 0.788 V 2.4 H 0 V 1.6 H 0.788 V -0.799 H 0 Z" /></g><g
           transform="translate(93.1802,206.3995)"
           id="g110"><path
             id="path112"
             style="fill:#ffffff;fill-opacity:1;fill-rule:nonzero;stroke:none"
             d="M 0,0 H -0.788 V 0.799 H -1.574 V -5.6 h 0.786 v 0.801 H 0 Z m 0,-5.6 v -0.8 h -3.935 v 0.8 h 0.786 V 0.799 H -3.935 V 1.6 H 0 V 0.799 H 0.786 V 0 H 1.574 V -4.799 H 0.786 V -5.6 Z" /></g><path
           id="path114"
           style="fill:#ffffff;fill-opacity:1;fill-rule:nonzero;stroke:none"
           d="m 100.261,207.199 h -2.36 v -6.4 h 2.36 z m -3.935,0 h 0.786 V 208 h 3.935 v -0.801 h 0.789 v -6.4 h -0.789 V 200 h -3.935 v 0.799 h -0.786 z" /><g
           transform="translate(103.4099,202.3995)"
           id="g116"><path
             id="path118"
             style="fill:#ffffff;fill-opacity:1;fill-rule:nonzero;stroke:none"
             d="M 0,0 H 1.574 V -1.6 H 3.935 V 0.799 H 3.146 V 1.6 H 1.574 V 2.4 H 0.786 V 3.201 H 0 V 4.799 H 0.786 V 5.6 H 4.721 V 4.799 H 5.509 V 3.201 H 3.935 V 4.799 H 1.574 V 3.201 H 2.36 V 2.4 H 3.935 V 1.6 H 4.721 V 0.799 H 5.509 V -1.6 H 4.721 V -2.4 H 0.786 v 0.8 L 0,-1.6 Z" /></g><g
           transform="translate(111.2769,207.1985)"
           id="g120"><path
             id="path122"
             style="fill:#ffffff;fill-opacity:1;fill-rule:nonzero;stroke:none"
             d="M 0,0 H 1.574 V -0.799 H 2.36 V -1.598 H 3.149 V -2.4 H 3.935 V -3.199 H 4.723 V -4 H 3.935 V -4.799 H 3.149 V -5.598 H 2.36 V -6.4 H 1.574 V -7.199 H 0 V -6.4 h 0.788 v 0.802 h 0.786 v 0.799 H 2.36 V -4 h 0.789 v 0.801 H 2.36 V -2.4 H 1.574 v 0.802 H 0.788 v 0.799 H 0 Z" /></g></g></g></g></svg>
